src/assets/icons/dot.svg

<svg width="30" height="20" viewBox="0 0 30 20" fill="none" xmlns="http://www.w3.org/2000/svg">
<path d="M1.3 8.9L7.7 0H11.2L9.6 7.1C10.9333 7.43334 12 8.13334 12.8 9.2C13.6 10.2667 14 11.5333 14 13C14 15 13.3 16.6667 11.9 18C10.5667 19.3333 8.93333 20 7 20C5 20 3.33333 19.3333 2 18C0.666667 16.6667 0 15 0 13C0 12.2667 0.0999999 11.5667 0.3 10.9C0.5 10.1667 0.833333 9.5 1.3 8.9ZM17.3 8.9L23.7 0H27.2L25.6 7.1C26.9333 7.43334 28 8.13334 28.8 9.2C29.6 10.2667 30 11.5333 30 13C30 15 29.3 16.6667 27.9 18C26.5667 19.3333 24.9333 20 23 20C21 20 19.3333 19.3333 18 18C16.6667 16.6667 16 15 16 13C16 12.2667 16.1 11.5667 16.3 10.9C16.5 10.1667 16.8333 9.5 17.3 8.9Z" fill="#D7EBFF"/>
</svg>

<svg xmlns="http://www.w3.org/2000/svg" width="30" height="20" fill="none"><path fill="#D7EBFF" d="M1.3 8.9 7.7 0h3.5L9.6 7.1q2 .5 3.2 2.1T14 13q0 3-2.1 5-2 2-4.9 2-3 0-5-2t-2-5q0-1.1.3-2.1.3-1.1 1-2m16 0L23.7 0h3.5l-1.6 7.1q2 .5 3.2 2.1T30 13q0 3-2.1 5-2 2-4.9 2-3 0-5-2t-2-5q0-1.1.3-2.1.3-1.1 1-2"/></svg>
